X:9
T:Valse de Costebelle
R:Valse
N:
D:
O:France
Z:<anamnese@laposte.net>
M:3/4
L:1/4
Q:1/4=170
K:C 
"Am"A2c | e3 | "F"f2a | "Am"e3  | "G"ddc |    B2d | "E"c2B | "Am"A3 ::
"Am"A3  | c3 | "G"Bgd | B3  | "C" e3-|e3 | "D"dcd | "E"e3  | 
"Am"A2c | e3 | "F"f2a | "G"g3   |    ddc | B2d | "C"c2"E"B | "Am"A3 |
"G"g/d/ B/g/ d/B/ | "Am"Ace | "G" g/d/ B/g/ d/B/  | "Am"A3 :|
